X:19
T:Turondale BD
% NFF Book 2015
S:collected from Joe Yates, Sofala, NSW
S:collected by Mike Martin
N:Joe Yates was variously collected by John Meredith, Chris Sullivan,
N:Mark Rummery and Mike Martin and others. 
N:Mike Martin prepared and printed a book of his versions of the Yates 
N:tunes in 1999: "Collected Tunes From Joe Yates".
N:Joe generally did not have any names for these tunes and those in
N:Martin's book were assigned by Martin.
O:Australia, NSW, Hill End and Sofala district
R:Jig
M:6/8
L:1/8
K:G
"G"B2DB2D|BcB "D"ABA|"G"G2G GAB|"D7"A2FD3|"G"B2DB2D|BcB "D7"ABA|FDD DEF|"G"G3-G3:|
|:"G"DEF GAB|"D7"c2A F3|DDF  GAB|"G"d2BG3|DEF GAB|"D7"c2AF3|FDD DEF|"G"G3-G3:|


